!!!OTL: HOPP HOPP HOPP PFERDCHEN
!!!ARE: Europa, Mitteleuropa, Deutschland
!!!SCT: F0245
!!!YEM: Copyright 1995, estate of Helmut Schaffrath.
**kern
*ICvox
*Ivox
*M2/4
*k[f#]
*G:
=1
{4g
4b
=2
4dd
4r}
=3
{8dd
8cc
8b
8a
=4
4g
4r}
=5
{8a
8a
8f#
8d
=6
8dd
8dd
8b
8g}
=7
{8a
8a
8f#
8d
=8
8dd
8dd
8b
8g}
=9
{8g
8a
8b
8cc
=10
4dd
4r}
=11
{8dd
8cc
8b
8a
=12
4g
4r}
==
!!!AGN: Jugend - Lied, Kinder, Spiel
!!!ONB: ESAC (Essen Associative Code) Database: FINK
!!!AMT: simple duple
!!!AIN: vox
!!!EED: Helmut Schaffrath
!!!EEV: 1.0
*-
